svg/fluentui-system-icons/ic_fluent_vehicle_car_profile_ltr_clock_16_regular.svg

<svg width="16" height="16" viewBox="0 0 16 16" fill="none" xmlns="http://www.w3.org/2000/svg">
<path d="M9 5.5C9 7.98528 6.98528 10 4.5 10C2.01472 10 0 7.98528 0 5.5C0 3.01472 2.01472 1 4.5 1C6.98528 1 9 3.01472 9 5.5ZM4.5 3C4.22386 3 4 3.22386 4 3.5V5.5C4 5.77614 4.22386 6 4.5 6H6C6.27614 6 6.5 5.77614 6.5 5.5C6.5 5.22386 6.27614 5 6 5H5V3.5C5 3.22386 4.77614 3 4.5 3ZM12.6029 9.50001H8.27593C8.59204 9.20143 8.87277 8.86578 9.11115 8.50001H11.5333L10.6235 6.79413C10.4728 6.5115 10.2391 6.29021 9.96165 6.15382C9.98698 5.93972 10 5.72186 10 5.50095C10 5.36465 9.99504 5.22951 9.9853 5.0957C10.6285 5.27909 11.1821 5.71639 11.5059 6.32354L12.6412 8.45223L12.7755 8.50001H12.8281V8.51874L14.338 9.0559C15.3344 9.41041 16 10.3536 16 11.4113V11.75C16 12.4597 15.5775 13.0708 14.9703 13.3454C14.8067 14.2854 13.9868 15 13 15C12.0681 15 11.285 14.3626 11.063 13.5H6.93699C6.71497 14.3626 5.93192 15 5 15C4.01321 15 3.19333 14.2854 3.02971 13.3454C2.4225 13.0708 2 12.4597 2 11.75V10.6365C2 10.5591 2.00355 10.4824 2.0105 10.4066C2.32418 10.5661 2.65521 10.6964 3 10.7939V11.75C3 11.9251 3.05997 12.0861 3.16049 12.2137C3.46594 11.5 4.17458 11 5 11C5.93192 11 6.71497 11.6374 6.93699 12.5H11.063C11.285 11.6374 12.0681 11 13 11C13.8254 11 14.5341 11.5 14.8395 12.2137C14.94 12.0861 15 11.9251 15 11.75V11.4113C15 10.7767 14.6007 10.2108 14.0028 9.99805L12.6029 9.50001ZM4 13C4 13.5523 4.44772 14 5 14C5.55228 14 6 13.5523 6 13C6 12.4477 5.55228 12 5 12C4.44772 12 4 12.4477 4 13ZM13 12C12.4477 12 12 12.4477 12 13C12 13.5523 12.4477 14 13 14C13.5523 14 14 13.5523 14 13C14 12.4477 13.5523 12 13 12Z" fill="#212121"/>
</svg>

<svg xmlns="http://www.w3.org/2000/svg" width="16" height="16"><path d="M9 5.5a4.5 4.5 0 1 1-9 0 4.5 4.5 0 0 1 9 0ZM4.5 3a.5.5 0 0 0-.5.5v2a.5.5 0 0 0 .5.5H6a.5.5 0 0 0 0-1H5V3.5a.5.5 0 0 0-.5-.5Zm8.103 6.5H8.276c.316-.299.597-.634.835-1h2.422l-.91-1.706a1.499 1.499 0 0 0-.661-.64 5.555 5.555 0 0 0 .023-1.058 2.5 2.5 0 0 1 1.52 1.228l1.136 2.128.134.048h.053v.019l1.51.537A2.5 2.5 0 0 1 16 11.41v.339c0 .71-.422 1.32-1.03 1.595a2 2 0 0 1-3.907.155H6.937a2 2 0 0 1-3.907-.155A1.75 1.75 0 0 1 2 11.75v-1.114c0-.077.004-.154.01-.23.314.16.645.29.99.388v.956c0 .175.06.336.16.464a2 2 0 0 1 3.777.286h4.126a2 2 0 0 1 3.776-.286.746.746 0 0 0 .161-.464v-.339c0-.634-.4-1.2-.997-1.413l-1.4-.498ZM4 13a1 1 0 1 0 2 0 1 1 0 0 0-2 0Zm9-1a1 1 0 1 0 0 2 1 1 0 0 0 0-2Z"/></svg>
